logos/upstash.svg

<?xml version="1.0" encoding="UTF-8"?>
<svg width="512px" height="153px" viewBox="0 0 512 153" version="1.1" xmlns="http://www.w3.org/2000/svg" preserveAspectRatio="xMidYMid">
    <title>upstash</title>
    <g>
        <path d="M0,133.753392 C25.3481956,159.101255 66.4456869,159.101255 91.7938744,133.753392 C117.141737,108.405205 117.141737,67.307746 91.7938744,41.9595585 L80.3194423,53.433666 C99.3306641,72.4448878 99.3306641,103.268063 80.3194423,122.27896 C61.3085451,141.290182 30.4853374,141.290182 11.4741156,122.27896 L0,133.753392 Z" fill="#00C98D"></path>
        <path d="M22.9485152,110.804853 C35.6225116,123.478784 56.1710788,123.478784 68.8453348,110.804853 C81.5192663,98.1309213 81.5192663,77.5820296 68.8453348,64.9080981 L57.3712273,76.3822056 C63.708193,82.7191713 63.708193,92.9934549 57.3712273,99.3307452 C51.033937,105.667711 40.7596534,105.667711 34.4226877,99.3307452 L22.9485152,110.804853 Z" fill="#00C98D"></path>
        <path d="M114.741765,19.0110189 C89.3935774,-6.3370063 48.2961186,-6.3370063 22.9480933,19.0110189 C-2.40010062,44.3592064 -2.40010062,85.4566652 22.9480933,110.804853 L34.4220386,99.3307452 C15.4113037,80.3195235 15.4113037,49.4963482 34.4220386,30.485451 C53.4332603,11.4742292 84.2564356,11.4742292 103.267333,30.485451 L114.741765,19.0110189 Z" fill="#00C98D"></path>
        <path d="M91.7935498,41.9595585 C79.1196184,29.285627 58.5704021,29.285627 45.8964707,41.9595585 C33.2222147,54.6338145 33.2222147,75.1823817 45.8964707,87.8563131 L57.3705782,76.3822056 C51.0336125,70.0452399 51.0336125,59.7709563 57.3705782,53.433666 C63.7075439,47.0967003 73.9818275,47.0967003 80.3191178,53.433666 L91.7935498,41.9595585 Z" fill="#00C98D"></path>
        <path d="M114.741765,19.0110189 C89.3935774,-6.3370063 48.2961186,-6.3370063 22.9480933,19.0110189 C-2.40010062,44.3592064 -2.40010062,85.4566652 22.9480933,110.804853 L34.4220386,99.3307452 C15.4113037,80.3195235 15.4113037,49.4963482 34.4220386,30.485451 C53.4332603,11.4742292 84.2564356,11.4742292 103.267333,30.485451 L114.741765,19.0110189 Z" fill-opacity="0.4" fill="#FFFFFF"></path>
        <path d="M91.7935498,41.9595585 C79.1196184,29.285627 58.5704021,29.285627 45.8964707,41.9595585 C33.2222147,54.6338145 33.2222147,75.1823817 45.8964707,87.8563131 L57.3705782,76.3822056 C51.0336125,70.0452399 51.0336125,59.7709563 57.3705782,53.433666 C63.7075439,47.0967003 73.9818275,47.0967003 80.3191178,53.433666 L91.7935498,41.9595585 Z" fill-opacity="0.4" fill="#FFFFFF"></path>
        <path d="M190.728884,85.463156 C190.728884,93.5536108 184.954995,97.5642746 179.423212,97.5642746 C173.407217,97.5642746 169.396553,93.311504 169.396553,86.5695125 L169.396553,54.6919071 L156.880348,54.6919071 L156.880348,88.5057174 C156.880348,101.263705 164.141278,108.48991 174.5827,108.48991 C182.534901,108.48991 188.13581,104.306266 190.556229,98.3593973 L191.109245,98.3593973 L191.109245,107.798315 L203.245089,107.798315 L203.245089,54.6919071 L190.728884,54.6919071 L190.728884,85.463156 Z M214.168128,127.713381 L226.684008,127.713381 L226.684008,99.4313526 L227.202623,99.4313526 C229.173554,103.303762 233.287746,108.731692 242.41543,108.731692 C254.931635,108.731692 264.301101,98.8088851 264.301101,81.3142382 C264.301101,63.6118858 254.654802,54.0003127 242.381029,54.0003127 C233.011238,54.0003127 229.104427,59.6359477 227.202623,63.4736318 L226.476627,63.4736318 L226.476627,54.6919071 L214.168128,54.6919071 L214.168128,127.713381 Z M226.441901,81.2451112 C226.441901,70.9419436 230.867652,64.2690791 238.923381,64.2690791 C247.255942,64.2690791 251.543114,71.3567055 251.543114,81.2451112 C251.543114,91.2026439 247.186815,98.4632501 238.923381,98.4632501 C230.936779,98.4632501 226.441901,91.5482788 226.441901,81.2451112 Z M315.045508,68.7289061 C313.317009,59.7398005 306.125205,54.0003127 293.678451,54.0003127 C280.886063,54.0003127 272.173141,60.2928164 272.207867,70.1120951 C272.173141,77.8565903 276.944526,82.9739352 287.143841,85.0827953 L296.202398,86.9842745 C301.077312,88.0562297 303.359476,90.0268359 303.359476,93.034996 C303.359476,96.6652992 299.417939,99.3966268 293.471071,99.3966268 C287.731583,99.3966268 283.997751,96.9074059 282.925796,92.1360206 L270.721149,93.311504 C272.276994,103.061656 280.470976,108.835545 293.505796,108.835545 C306.782398,108.835545 316.151865,101.955299 316.18659,91.8939138 C316.151865,84.3220738 311.276951,79.689267 301.250291,77.5109553 L292.191734,75.5747504 C286.798206,74.3648657 284.65462,72.4977878 284.689021,69.4205006 C284.65462,65.8249233 288.630558,63.3353778 293.851431,63.3353778 C299.62532,63.3353778 302.667882,66.481792 303.635984,69.9738411 L315.045508,68.7289061 Z M351.0769,54.6919071 L340.603998,54.6919071 L340.603998,41.9683211 L328.086494,41.9683211 L328.086494,54.6919071 L320.549056,54.6919071 L320.549056,64.3726073 L328.086494,64.3726073 L328.086494,93.8992457 C328.018341,103.891504 335.278298,108.800819 344.683464,108.524311 C348.243666,108.420783 350.697188,107.729188 352.047274,107.279701 L349.937765,97.4951476 C349.246495,97.6681274 347.828255,97.9790366 346.273709,97.9790366 C343.125672,97.9790366 340.603998,96.8726801 340.603998,91.8247868 L340.603998,64.3726073 L351.0769,64.3726073 L351.0769,54.6919071 Z M374.8819,108.87027 C383.212839,108.87027 388.19128,104.963135 390.472796,100.502983 L390.888207,100.502983 L390.888207,107.798315 L402.922146,107.798315 L402.922146,72.255681 C402.922146,58.2183575 391.475624,54.0003127 381.346734,54.0003127 C370.179317,54.0003127 361.604973,58.979079 358.836648,68.6597791 L370.523329,70.3194761 C371.769562,66.689173 375.294066,63.5774846 381.414888,63.5774846 C387.224152,63.5774846 390.404642,66.550919 390.404642,71.7714675 L390.404642,71.979173 C390.404642,75.5747504 386.636734,75.7477301 377.267268,76.7502338 C366.963127,77.8565903 357.110096,80.9338775 357.110096,92.896742 C357.110096,103.338164 364.749765,108.87027 374.8819,108.87027 Z M378.130544,99.6731348 C372.908697,99.6731348 369.176489,97.2877666 369.176489,92.6893611 C369.176489,87.8832499 373.359808,85.877918 378.961366,85.0827953 C382.24571,84.6333076 388.814397,83.8034591 390.440342,82.4897216 L390.440342,88.7478242 C390.440342,94.6599672 385.66636,99.6731348 378.130544,99.6731348 Z M455.533306,68.7289061 C453.803508,59.7398005 446.611705,54.0003127 434.1656,54.0003127 C421.372238,54.0003127 412.658342,60.2928164 412.694042,70.1120951 C412.658342,77.8565903 417.432324,82.9739352 427.629367,85.0827953 L436.69052,86.9842745 C441.565109,88.0562297 443.846625,90.0268359 443.846625,93.034996 C443.846625,96.6652992 439.903465,99.3966268 433.957895,99.3966268 C428.216784,99.3966268 424.484575,96.9074059 423.413594,92.1360206 L411.207649,93.311504 C412.762195,103.061656 420.956827,108.835545 433.993594,108.835545 C447.267275,108.835545 456.639987,101.955299 456.672441,91.8939138 C456.639987,84.3220738 451.762153,79.689267 441.737116,77.5109553 L432.679207,75.5747504 C427.285355,74.3648657 425.140146,72.4977878 425.175845,69.4205006 C425.140146,65.8249233 429.11576,63.3353778 434.337606,63.3353778 C440.111171,63.3353778 443.155355,66.481792 444.122484,69.9738411 L455.533306,68.7289061 Z M477.563073,76.6811068 C477.563073,69.0057386 482.333809,64.5799883 489.042049,64.5799883 C495.610736,64.5799883 499.482497,68.7636319 499.482497,75.9207099 L499.482497,107.798315 L512,107.798315 L512,73.984505 C512,61.1573907 504.736797,54.0003127 493.708932,54.0003127 C485.55,54.0003127 480.363852,57.6997428 477.907085,63.7157386 L477.287214,63.7157386 L477.287214,36.9895547 L465.04557,36.9895547 L465.04557,107.798315 L477.563073,107.798315 L477.563073,76.6811068 Z" fill="#050505"></path>
    </g>
</svg>

<svg preserveAspectRatio="xMidYMid" viewBox="0 0 512 153" xmlns="http://www.w3.org/2000/svg">
  <path fill="#00C98D" d="M0 133.753c25.348 25.348 66.446 25.348 91.794 0s25.348-66.445 0-91.793L80.319 53.434c19.012 19.01 19.012 49.834 0 68.845-19.01 19.011-49.834 19.011-68.845 0L0 133.753Z"/>
  <path fill="#00C98D" d="M22.949 110.805c12.674 12.674 33.222 12.674 45.896 0s12.674-33.223 0-45.897L57.371 76.382c6.337 6.337 6.337 16.611 0 22.949-6.337 6.337-16.611 6.337-22.948 0l-11.474 11.474Z"/>
  <path fill="#00C98D" d="M114.742 19.011c-25.348-25.348-66.446-25.348-91.794 0s-25.348 66.446 0 91.794L34.422 99.33c-19.01-19.011-19.01-49.835 0-68.846 19.011-19.01 49.834-19.01 68.845 0l11.475-11.474Z"/>
  <path fill="#00C98D" d="M91.794 41.96c-12.674-12.674-33.224-12.674-45.898 0-12.674 12.674-12.674 33.222 0 45.896l11.475-11.474c-6.337-6.337-6.337-16.611 0-22.948s16.61-6.337 22.948 0L91.794 41.96Z"/>
  <path fill="#FFF" fill-opacity=".4" d="M114.742 19.011c-25.348-25.348-66.446-25.348-91.794 0s-25.348 66.446 0 91.794L34.422 99.33c-19.01-19.011-19.01-49.835 0-68.846 19.011-19.01 49.834-19.01 68.845 0l11.475-11.474Z"/>
  <path fill="#FFF" fill-opacity=".4" d="M91.794 41.96c-12.674-12.674-33.224-12.674-45.898 0-12.674 12.674-12.674 33.222 0 45.896l11.475-11.474c-6.337-6.337-6.337-16.611 0-22.948s16.61-6.337 22.948 0L91.794 41.96Z"/>
  <path fill="#050505" d="M190.729 85.463c0 8.09-5.774 12.101-11.306 12.101-6.016 0-10.026-4.252-10.026-10.994V54.692H156.88v33.814c0 12.758 7.261 19.984 17.703 19.984 7.952 0 13.553-4.184 15.973-10.13h.553v9.438h12.136V54.692H190.73v30.771Zm23.44 42.25h12.515V99.431h.519c1.97 3.873 6.085 9.3 15.212 9.3 12.517 0 21.886-9.922 21.886-27.417 0-17.702-9.646-27.314-21.92-27.314-9.37 0-13.277 5.636-15.178 9.474h-.726v-8.782h-12.309v73.021Zm12.273-46.468c0-10.303 4.426-16.976 12.481-16.976 8.333 0 12.62 7.088 12.62 16.976 0 9.958-4.356 17.218-12.62 17.218-7.986 0-12.481-6.915-12.481-17.218Zm88.604-12.516C313.317 59.739 306.126 54 293.678 54c-12.792 0-21.505 6.293-21.47 16.112-.035 7.745 4.737 12.862 14.936 14.97l9.058 1.902c4.875 1.072 7.157 3.043 7.157 6.051 0 3.63-3.941 6.362-9.888 6.362-5.74 0-9.473-2.49-10.545-7.261l-12.205 1.176c1.556 9.75 9.75 15.524 22.785 15.524 13.276 0 22.646-6.88 22.68-16.942-.034-7.572-4.909-12.205-14.936-14.383l-9.058-1.936c-5.394-1.21-7.537-3.077-7.503-6.154-.034-3.596 3.942-6.086 9.162-6.086 5.774 0 8.817 3.147 9.785 6.639l11.41-1.245Zm36.03-14.037h-10.472V41.968h-12.518v12.724h-7.537v9.68h7.537V93.9c-.068 9.993 7.192 14.902 16.597 14.625 3.56-.103 6.014-.795 7.364-1.244l-2.11-9.785c-.69.173-2.109.484-3.663.484-3.148 0-5.67-1.106-5.67-6.154V64.373h10.473v-9.681Zm23.806 54.178c8.33 0 13.31-3.907 15.59-8.367h.416v7.295h12.034V72.256c0-14.038-11.446-18.256-21.575-18.256-11.168 0-19.742 4.98-22.51 14.66l11.686 1.66c1.247-3.63 4.771-6.743 10.892-6.743 5.81 0 8.99 2.974 8.99 8.194v.208c0 3.596-3.768 3.769-13.138 4.771-10.304 1.107-20.157 4.184-20.157 16.147 0 10.441 7.64 15.973 17.772 15.973Zm3.249-9.197c-5.222 0-8.955-2.385-8.955-6.984 0-4.806 4.184-6.811 9.785-7.606 3.285-.45 9.853-1.28 11.48-2.593v6.258c0 5.912-4.775 10.925-12.31 10.925Zm77.402-30.944C453.803 59.739 446.612 54 434.166 54c-12.794 0-21.508 6.293-21.472 16.112-.036 7.745 4.738 12.862 14.935 14.97l9.062 1.902c4.874 1.072 7.156 3.043 7.156 6.051 0 3.63-3.944 6.362-9.89 6.362-5.74 0-9.472-2.49-10.543-7.261l-12.206 1.176c1.554 9.75 9.749 15.524 22.786 15.524 13.273 0 22.646-6.88 22.678-16.942-.032-7.572-4.91-12.205-14.935-14.383l-9.058-1.936c-5.394-1.21-7.539-3.077-7.503-6.154-.036-3.596 3.94-6.086 9.162-6.086 5.773 0 8.817 3.147 9.784 6.639l11.411-1.245Zm22.03 7.952c0-7.675 4.77-12.101 11.479-12.101 6.569 0 10.44 4.184 10.44 11.34v31.878H512V73.985C512 61.157 504.737 54 493.709 54c-8.159 0-13.345 3.7-15.802 9.716h-.62V36.99h-12.241v70.808h12.517V76.681Z"/>
</svg>
